X:228
T:Jack's Health. (p)1679.PLFD.228
M:6/4
L:1/4
Q:3/4=100
S:Playford, Dancing Master,6th Ed.,1679
O:England
H:1679.
Z:Chris Partington.
K:G
d|B>AGd>ef|e2ee2g|d2BB>cd|A2AA2d|
B>AGd>cd|e2ee2g|d2BA>GF|G2GG2:|
|:g|a2dd>ef|g2ab2a|g2af>ed/c/|d2dd2c/B/|
c>dcB2c|A2GF2B|E>FGA>GF|G2GG2:|
